report_00007_2020-12-11T15:55:29.892Z/interactive/comparison/sorted/2_vs_3.svg

<svg width="640" height="500" xmlns="http://www.w3.org/2000/svg" xmlns:xlink="http://www.w3.org/1999/xlink"><path fill="#fff" d="M0 0h640v500H0z"/><defs><path id="d" stroke-width=".222" stroke="currentColor" d="M-1-1h2v2h-2z"/><path id="b" stroke-width=".222" stroke="currentColor" d="M0-1.33l-1.33 2h2.66z"/><path id="f" stroke-width=".222" stroke="currentColor" d="M0 1.33L1.265.411.782-1.067l-1.564-.009-.483 1.487z"/><use xlink:href="#b" id="c" stroke="currentColor" transform="rotate(180)"/><use xlink:href="#d" id="e" stroke="currentColor" transform="rotate(45)"/><circle id="a" stroke-width=".222" stroke="currentColor" cx="0" cy="0" r="1"/></defs><g fill="none" color="#000" stroke="currentColor"><path stroke="#000" d="M70.5 376h9m535.5 0h-9"/><text transform="translate(62.2 379.9)" stroke="none" fill="#000" font-family="Arial" font-size="12" text-anchor="end"><tspan>11000</tspan></text></g><g fill="none" color="#000" stroke="currentColor"><path stroke="#000" d="M70.5 305.9h9m535.5 0h-9"/><text transform="translate(62.2 309.8)" stroke="none" fill="#000" font-family="Arial" font-size="12" text-anchor="end"><tspan>11100</tspan></text></g><g fill="none" color="#000" stroke="currentColor"><path stroke="#000" d="M70.5 235.7h9m535.5 0h-9"/><text transform="translate(62.2 239.6)" stroke="none" fill="#000" font-family="Arial" font-size="12" text-anchor="end"><tspan>11200</tspan></text></g><g fill="none" color="#000" stroke="currentColor"><path stroke="#000" d="M70.5 165.6h9m535.5 0h-9"/><text transform="translate(62.2 169.5)" stroke="none" fill="#000" font-family="Arial" font-size="12" text-anchor="end"><tspan>11300</tspan></text></g><g fill="none" color="#000" stroke="currentColor"><path stroke="#000" d="M70.5 95.5h9m535.5 0h-9"/><text transform="translate(62.2 99.4)" stroke="none" fill="#000" font-family="Arial" font-size="12" text-anchor="end"><tspan>11400</tspan></text></g><g fill="none" color="#000" stroke="currentColor"><path stroke="#000" d="M70.5 25.4h9m535.5 0h-9"/><text transform="translate(62.2 29.3)" stroke="none" fill="#000" font-family="Arial" font-size="12" text-anchor="end"><tspan>11500</tspan></text></g><g fill="none" color="#000" stroke="currentColor"><path stroke="#000" d="M70.5 428v-9m0-400.9v9"/><text transform="translate(70.5 449.9)" stroke="none" fill="#000" font-family="Arial" font-size="12" text-anchor="middle"><tspan>0</tspan></text></g><g fill="none" color="#000" stroke="currentColor"><path stroke="#000" d="M125.5 428v-9m0-400.9v9"/><text transform="translate(125.5 449.9)" stroke="none" fill="#000" font-family="Arial" font-size="12" text-anchor="middle"><tspan>10</tspan></text></g><g fill="none" color="#000" stroke="currentColor"><path stroke="#000" d="M180.5 428v-9m0-400.9v9"/><text transform="translate(180.5 449.9)" stroke="none" fill="#000" font-family="Arial" font-size="12" text-anchor="middle"><tspan>20</tspan></text></g><g fill="none" color="#000" stroke="currentColor"><path stroke="#000" d="M235.5 428v-9m0-400.9v9"/><text transform="translate(235.5 449.9)" stroke="none" fill="#000" font-family="Arial" font-size="12" text-anchor="middle"><tspan>30</tspan></text></g><g fill="none" color="#000" stroke="currentColor"><path stroke="#000" d="M290.5 428v-9m0-400.9v9"/><text transform="translate(290.5 449.9)" stroke="none" fill="#000" font-family="Arial" font-size="12" text-anchor="middle"><tspan>40</tspan></text></g><g fill="none" color="#000" stroke="currentColor"><path stroke="#000" d="M345.5 428v-9m0-400.9v9"/><text transform="translate(345.5 449.9)" stroke="none" fill="#000" font-family="Arial" font-size="12" text-anchor="middle"><tspan>50</tspan></text></g><g fill="none" color="#000" stroke="currentColor"><path stroke="#000" d="M400.5 428v-9m0-400.9v9"/><text transform="translate(400.5 449.9)" stroke="none" fill="#000" font-family="Arial" font-size="12" text-anchor="middle"><tspan>60</tspan></text></g><g fill="none" color="#000" stroke="currentColor"><path stroke="#000" d="M455.5 428v-9m0-400.9v9"/><text transform="translate(455.5 449.9)" stroke="none" fill="#000" font-family="Arial" font-size="12" text-anchor="middle"><tspan>70</tspan></text></g><g fill="none" color="#000" stroke="currentColor"><path stroke="#000" d="M510.5 428v-9m0-400.9v9"/><text transform="translate(510.5 449.9)" stroke="none" fill="#000" font-family="Arial" font-size="12" text-anchor="middle"><tspan>80</tspan></text></g><g fill="none" color="#000" stroke="currentColor"><path stroke="#000" d="M565.5 428v-9m0-400.9v9"/><text transform="translate(565.5 449.9)" stroke="none" fill="#000" font-family="Arial" font-size="12" text-anchor="middle"><tspan>90</tspan></text></g><path stroke="#000" d="M70.5 18.1V428H615V18.1H70.5z" fill="none" color="#000"/><text transform="translate(283.9 467.9)" stroke="none" fill="#000" font-family="Arial" font-size="12" text-anchor="end" color="#000"><tspan>pages+cached</tspan></text><path stroke="#9400D3" d="M292.2 464h42.2M70.5 420.1l5.5-2.7 5.5-.2H87l5.5-.2 5.5-.3 5.5-.3 5.5-.3 5.5-.9 5.5-1.1 5.5-.1h11l5.5-.1 5.5-.1 5.5-.1 5.5-.1 5.5-.5h5.5l5.5-.3h5.5l5.5-.1 5.5-.2 5.5-.4 5.5-.2 5.5-.3 5.5-.5h11l5.5-.1h5.5l5.5-.1 5.5-.2 5.5-.3 5.5-.2 5.5-.9 5.5-.1h5.5l5.5-.2 5.5-.4 5.5-.7 5.5-.6h5.5l5.5-.4 5.5-.6 5.5-.2 5.5-.3 5.5-1.3 5.5-.1 5.5-1.6 5.5-.1 5.5-.2 5.5-.3 5.5-.7 5.5-.5 5.5-.6h5.5l5.5-1.5h16.5l5.5-.3 5.5-.1 5.5-.4 5.5-.4 5.5-.3 5.5-.3 5.5-.9 5.5-.4 5.5-.1h5.5l5.5-.6 5.5-.5 5.5-.5h5.5l5.5-.6 5.5-.2h11l5.5-.1 5.5-.5 5.5-.1 5.5-.4 5.5-.1 5.5-.4 5.5-.6 5.5-.1 5.5-.2 5.5-.2 5.5-1 5.5-.2 5.5-.4 5.5-1.7 5.5-4.1 5.5-7.4 5.5-1.1 5.5-.3 5.5-10.9 5.5-5.9L615 26" fill="none" color="#000"/><text transform="translate(283.9 485.9)" stroke="none" fill="#000" font-family="Arial" font-size="12" text-anchor="end" color="#000"><tspan>pages+cached+nointeractive</tspan></text><path stroke="#009E73" d="M292.2 482h42.2M70.5 420.1l5.5-1.6 5.5-.6H87l5.5-.9 5.5-.3 5.5-1h5.5l5.5-.4 5.5-.7 5.5-.4 5.5-.3 5.5-.1h5.5l5.5-.2 5.5-.3h5.5l5.5-.2h16.5l5.5-.3 5.5-.1 5.5-.1h5.5l5.5-.5 5.5-.5h11l5.5-.3 5.5-.2 5.5-.4 5.5-.2h5.5l5.5-.1h5.5l5.5-.1 5.5-.3 5.5-.3h5.5l5.5-.1 5.5-.2 5.5-.2h5.5l5.5-.1 5.5-.1 5.5-.2 5.5-.1h5.5l5.5-.1h5.5l5.5-.1h5.5l5.5-.1 5.5-.2 5.5-.1 5.5-.1h5.5l5.5-.3 5.5-.1 5.5-.1 5.5-.3 5.5-.5 5.5-.1 5.5-.4 5.5-.2 5.5-.2 5.5-.7 5.5-.1 5.5-.4 5.5-.1 5.5-.2 5.5-.5 5.5-.2 5.5-2.3 5.5-1.1 5.5-.4 5.5-.7 5.5-.3 5.5-2.8 5.5-.2 5.5-.5 5.5-.4h5.5l5.5-.3 5.5-.1 5.5-1 5.5-.3 5.5-.7 5.5-.6 5.5-.1 5.5-.2 5.5-.6 5.5-.4h5.5l5.5-.4 5.5-.3 5.5-6.9 5.5-2.3 5.5-9.9" fill="none" color="#000"/><text transform="translate(558.5 467.9)" stroke="none" fill="#000" font-family="Arial" font-size="12" text-anchor="end" color="#000"><tspan>score p10=3785</tspan></text><path stroke="#56B4E9" d="M566.8 464H609" fill="none" color="#000"/><g><text transform="translate(558.5 485.9)" stroke="none" fill="#000" font-family="Arial" font-size="12" text-anchor="end" color="#000"><tspan>score median=7300</tspan></text><path stroke="#E69F00" d="M566.8 482H609" fill="none" color="#000"/></g><g fill="none" color="#000" stroke="currentColor"><path stroke="#000" d="M70.5 18.1V428H615V18.1H70.5z"/></g></svg>

<?xml version="1.0" encoding="utf-8"  standalone="no"?>
<svg 
 width="640" height="500"
 viewBox="0 0 640 500"
 xmlns="http://www.w3.org/2000/svg"
 xmlns:xlink="http://www.w3.org/1999/xlink"
>

<title>Gnuplot</title>
<desc>Produced by GNUPLOT 5.4 patchlevel 0 </desc>

<g id="gnuplot_canvas">

<rect x="0" y="0" width="640" height="500" fill="#ffffff"/>
<defs>

	<circle id='gpDot' r='0.5' stroke-width='0.5' stroke='currentColor'/>
	<path id='gpPt0' stroke-width='0.222' stroke='currentColor' d='M-1,0 h2 M0,-1 v2'/>
	<path id='gpPt1' stroke-width='0.222' stroke='currentColor' d='M-1,-1 L1,1 M1,-1 L-1,1'/>
	<path id='gpPt2' stroke-width='0.222' stroke='currentColor' d='M-1,0 L1,0 M0,-1 L0,1 M-1,-1 L1,1 M-1,1 L1,-1'/>
	<rect id='gpPt3' stroke-width='0.222' stroke='currentColor' x='-1' y='-1' width='2' height='2'/>
	<rect id='gpPt4' stroke-width='0.222' stroke='currentColor' fill='currentColor' x='-1' y='-1' width='2' height='2'/>
	<circle id='gpPt5' stroke-width='0.222' stroke='currentColor' cx='0' cy='0' r='1'/>
	<use xlink:href='#gpPt5' id='gpPt6' fill='currentColor' stroke='none'/>
	<path id='gpPt7' stroke-width='0.222' stroke='currentColor' d='M0,-1.33 L-1.33,0.67 L1.33,0.67 z'/>
	<use xlink:href='#gpPt7' id='gpPt8' fill='currentColor' stroke='none'/>
	<use xlink:href='#gpPt7' id='gpPt9' stroke='currentColor' transform='rotate(180)'/>
	<use xlink:href='#gpPt9' id='gpPt10' fill='currentColor' stroke='none'/>
	<use xlink:href='#gpPt3' id='gpPt11' stroke='currentColor' transform='rotate(45)'/>
	<use xlink:href='#gpPt11' id='gpPt12' fill='currentColor' stroke='none'/>
	<path id='gpPt13' stroke-width='0.222' stroke='currentColor' d='M0,1.330 L1.265,0.411 L0.782,-1.067 L-0.782,-1.076 L-1.265,0.411 z'/>
	<use xlink:href='#gpPt13' id='gpPt14' fill='currentColor' stroke='none'/>
	<filter id='textbox' filterUnits='objectBoundingBox' x='0' y='0' height='1' width='1'>
	  <feFlood flood-color='#FFFFFF' flood-opacity='1' result='bgnd'/>
	  <feComposite in='SourceGraphic' in2='bgnd' operator='atop'/>
	</filter>
	<filter id='greybox' filterUnits='objectBoundingBox' x='0' y='0' height='1' width='1'>
	  <feFlood flood-color='lightgrey' flood-opacity='1' result='grey'/>
	  <feComposite in='SourceGraphic' in2='grey' operator='atop'/>
	</filter>
</defs>
<g fill="none" color="#FFFFFF" stroke="black" stroke-width="1.00" stroke-linecap="butt" stroke-linejoin="miter">
</g>
<g fill="none" color="black" stroke="currentColor" stroke-width="1.00" stroke-linecap="butt" stroke-linejoin="miter">
	<path stroke='black'  d='M70.5,376.0 L79.5,376.0 M615.0,376.0 L606.0,376.0  '/>	<g transform="translate(62.2,379.9)" stroke="none" fill="black" font-family="Arial" font-size="12.00"  text-anchor="end">
		<text><tspan font-family="Arial" > 11000</tspan></text>
	</g>
</g>
<g fill="none" color="black" stroke="currentColor" stroke-width="1.00" stroke-linecap="butt" stroke-linejoin="miter">
	<path stroke='black'  d='M70.5,305.9 L79.5,305.9 M615.0,305.9 L606.0,305.9  '/>	<g transform="translate(62.2,309.8)" stroke="none" fill="black" font-family="Arial" font-size="12.00"  text-anchor="end">
		<text><tspan font-family="Arial" > 11100</tspan></text>
	</g>
</g>
<g fill="none" color="black" stroke="currentColor" stroke-width="1.00" stroke-linecap="butt" stroke-linejoin="miter">
	<path stroke='black'  d='M70.5,235.7 L79.5,235.7 M615.0,235.7 L606.0,235.7  '/>	<g transform="translate(62.2,239.6)" stroke="none" fill="black" font-family="Arial" font-size="12.00"  text-anchor="end">
		<text><tspan font-family="Arial" > 11200</tspan></text>
	</g>
</g>
<g fill="none" color="black" stroke="currentColor" stroke-width="1.00" stroke-linecap="butt" stroke-linejoin="miter">
	<path stroke='black'  d='M70.5,165.6 L79.5,165.6 M615.0,165.6 L606.0,165.6  '/>	<g transform="translate(62.2,169.5)" stroke="none" fill="black" font-family="Arial" font-size="12.00"  text-anchor="end">
		<text><tspan font-family="Arial" > 11300</tspan></text>
	</g>
</g>
<g fill="none" color="black" stroke="currentColor" stroke-width="1.00" stroke-linecap="butt" stroke-linejoin="miter">
	<path stroke='black'  d='M70.5,95.5 L79.5,95.5 M615.0,95.5 L606.0,95.5  '/>	<g transform="translate(62.2,99.4)" stroke="none" fill="black" font-family="Arial" font-size="12.00"  text-anchor="end">
		<text><tspan font-family="Arial" > 11400</tspan></text>
	</g>
</g>
<g fill="none" color="black" stroke="currentColor" stroke-width="1.00" stroke-linecap="butt" stroke-linejoin="miter">
	<path stroke='black'  d='M70.5,25.4 L79.5,25.4 M615.0,25.4 L606.0,25.4  '/>	<g transform="translate(62.2,29.3)" stroke="none" fill="black" font-family="Arial" font-size="12.00"  text-anchor="end">
		<text><tspan font-family="Arial" > 11500</tspan></text>
	</g>
</g>
<g fill="none" color="black" stroke="currentColor" stroke-width="1.00" stroke-linecap="butt" stroke-linejoin="miter">
	<path stroke='black'  d='M70.5,428.0 L70.5,419.0 M70.5,18.1 L70.5,27.1  '/>	<g transform="translate(70.5,449.9)" stroke="none" fill="black" font-family="Arial" font-size="12.00"  text-anchor="middle">
		<text><tspan font-family="Arial" > 0</tspan></text>
	</g>
</g>
<g fill="none" color="black" stroke="currentColor" stroke-width="1.00" stroke-linecap="butt" stroke-linejoin="miter">
	<path stroke='black'  d='M125.5,428.0 L125.5,419.0 M125.5,18.1 L125.5,27.1  '/>	<g transform="translate(125.5,449.9)" stroke="none" fill="black" font-family="Arial" font-size="12.00"  text-anchor="middle">
		<text><tspan font-family="Arial" > 10</tspan></text>
	</g>
</g>
<g fill="none" color="black" stroke="currentColor" stroke-width="1.00" stroke-linecap="butt" stroke-linejoin="miter">
	<path stroke='black'  d='M180.5,428.0 L180.5,419.0 M180.5,18.1 L180.5,27.1  '/>	<g transform="translate(180.5,449.9)" stroke="none" fill="black" font-family="Arial" font-size="12.00"  text-anchor="middle">
		<text><tspan font-family="Arial" > 20</tspan></text>
	</g>
</g>
<g fill="none" color="black" stroke="currentColor" stroke-width="1.00" stroke-linecap="butt" stroke-linejoin="miter">
	<path stroke='black'  d='M235.5,428.0 L235.5,419.0 M235.5,18.1 L235.5,27.1  '/>	<g transform="translate(235.5,449.9)" stroke="none" fill="black" font-family="Arial" font-size="12.00"  text-anchor="middle">
		<text><tspan font-family="Arial" > 30</tspan></text>
	</g>
</g>
<g fill="none" color="black" stroke="currentColor" stroke-width="1.00" stroke-linecap="butt" stroke-linejoin="miter">
	<path stroke='black'  d='M290.5,428.0 L290.5,419.0 M290.5,18.1 L290.5,27.1  '/>	<g transform="translate(290.5,449.9)" stroke="none" fill="black" font-family="Arial" font-size="12.00"  text-anchor="middle">
		<text><tspan font-family="Arial" > 40</tspan></text>
	</g>
</g>
<g fill="none" color="black" stroke="currentColor" stroke-width="1.00" stroke-linecap="butt" stroke-linejoin="miter">
	<path stroke='black'  d='M345.5,428.0 L345.5,419.0 M345.5,18.1 L345.5,27.1  '/>	<g transform="translate(345.5,449.9)" stroke="none" fill="black" font-family="Arial" font-size="12.00"  text-anchor="middle">
		<text><tspan font-family="Arial" > 50</tspan></text>
	</g>
</g>
<g fill="none" color="black" stroke="currentColor" stroke-width="1.00" stroke-linecap="butt" stroke-linejoin="miter">
	<path stroke='black'  d='M400.5,428.0 L400.5,419.0 M400.5,18.1 L400.5,27.1  '/>	<g transform="translate(400.5,449.9)" stroke="none" fill="black" font-family="Arial" font-size="12.00"  text-anchor="middle">
		<text><tspan font-family="Arial" > 60</tspan></text>
	</g>
</g>
<g fill="none" color="black" stroke="currentColor" stroke-width="1.00" stroke-linecap="butt" stroke-linejoin="miter">
	<path stroke='black'  d='M455.5,428.0 L455.5,419.0 M455.5,18.1 L455.5,27.1  '/>	<g transform="translate(455.5,449.9)" stroke="none" fill="black" font-family="Arial" font-size="12.00"  text-anchor="middle">
		<text><tspan font-family="Arial" > 70</tspan></text>
	</g>
</g>
<g fill="none" color="black" stroke="currentColor" stroke-width="1.00" stroke-linecap="butt" stroke-linejoin="miter">
	<path stroke='black'  d='M510.5,428.0 L510.5,419.0 M510.5,18.1 L510.5,27.1  '/>	<g transform="translate(510.5,449.9)" stroke="none" fill="black" font-family="Arial" font-size="12.00"  text-anchor="middle">
		<text><tspan font-family="Arial" > 80</tspan></text>
	</g>
</g>
<g fill="none" color="black" stroke="currentColor" stroke-width="1.00" stroke-linecap="butt" stroke-linejoin="miter">
	<path stroke='black'  d='M565.5,428.0 L565.5,419.0 M565.5,18.1 L565.5,27.1  '/>	<g transform="translate(565.5,449.9)" stroke="none" fill="black" font-family="Arial" font-size="12.00"  text-anchor="middle">
		<text><tspan font-family="Arial" > 90</tspan></text>
	</g>
</g>
<g fill="none" color="black" stroke="currentColor" stroke-width="1.00" stroke-linecap="butt" stroke-linejoin="miter">
</g>
<g fill="none" color="black" stroke="currentColor" stroke-width="1.00" stroke-linecap="butt" stroke-linejoin="miter">
	<path stroke='black'  d='M70.5,18.1 L70.5,428.0 L615.0,428.0 L615.0,18.1 L70.5,18.1 Z  '/></g>
<g fill="none" color="black" stroke="currentColor" stroke-width="1.00" stroke-linecap="butt" stroke-linejoin="miter">
</g>
	<g id="gnuplot_plot_1" ><title>pages+cached</title>
<g fill="none" color="black" stroke="currentColor" stroke-width="1.00" stroke-linecap="butt" stroke-linejoin="miter">
	<g transform="translate(283.9,467.9)" stroke="none" fill="black" font-family="Arial" font-size="12.00"  text-anchor="end">
		<text><tspan font-family="Arial" >pages+cached</tspan></text>
	</g>
</g>
<g fill="none" color="black" stroke="currentColor" stroke-width="1.00" stroke-linecap="butt" stroke-linejoin="miter">
	<path stroke='rgb(148,   0, 211)'  d='M292.2,464.0 L334.4,464.0 M70.5,420.1 L76.0,417.4 L81.5,417.2 L87.0,417.2 L92.5,417.0 L98.0,416.7
		L103.5,416.4 L109.0,416.1 L114.5,415.2 L120.0,414.1 L125.5,414.0 L131.0,414.0 L136.5,414.0 L142.0,413.9
		L147.5,413.8 L153.0,413.7 L158.5,413.6 L164.0,413.1 L169.5,413.1 L175.0,412.8 L180.5,412.8 L186.0,412.7
		L191.5,412.5 L197.0,412.1 L202.5,411.9 L208.0,411.6 L213.5,411.1 L219.0,411.1 L224.5,411.1 L230.0,411.0
		L235.5,411.0 L241.0,410.9 L246.5,410.7 L252.0,410.4 L257.5,410.2 L263.0,409.3 L268.5,409.2 L274.0,409.2
		L279.5,409.0 L285.0,408.6 L290.5,407.9 L296.0,407.3 L301.5,407.3 L307.0,406.9 L312.5,406.3 L318.0,406.1
		L323.5,405.8 L329.0,404.5 L334.5,404.4 L340.0,402.8 L345.5,402.7 L351.0,402.5 L356.5,402.2 L362.0,401.5
		L367.5,401.0 L373.0,400.4 L378.5,400.4 L384.0,398.9 L389.5,398.9 L395.0,398.9 L400.5,398.9 L406.0,398.6
		L411.5,398.5 L417.0,398.1 L422.5,397.7 L428.0,397.4 L433.5,397.1 L439.0,396.2 L444.5,395.8 L450.0,395.7
		L455.5,395.7 L461.0,395.1 L466.5,394.6 L472.0,394.1 L477.5,394.1 L483.0,393.5 L488.5,393.3 L494.0,393.3
		L499.5,393.3 L505.0,393.2 L510.5,392.7 L516.0,392.6 L521.5,392.2 L527.0,392.1 L532.5,391.7 L538.0,391.1
		L543.5,391.0 L549.0,390.8 L554.5,390.6 L560.0,389.6 L565.5,389.4 L571.0,389.0 L576.5,387.3 L582.0,383.2
		L587.5,375.8 L593.0,374.7 L598.5,374.4 L604.0,363.5 L609.5,357.6 L615.0,26.0  '/></g>
	</g>
	<g id="gnuplot_plot_2" ><title>pages+cached+nointeractive</title>
<g fill="none" color="black" stroke="currentColor" stroke-width="1.00" stroke-linecap="butt" stroke-linejoin="miter">
	<g transform="translate(283.9,485.9)" stroke="none" fill="black" font-family="Arial" font-size="12.00"  text-anchor="end">
		<text><tspan font-family="Arial" >pages+cached+nointeractive</tspan></text>
	</g>
</g>
<g fill="none" color="black" stroke="currentColor" stroke-width="1.00" stroke-linecap="butt" stroke-linejoin="miter">
	<path stroke='rgb(  0, 158, 115)'  d='M292.2,482.0 L334.4,482.0 M70.5,420.1 L76.0,418.5 L81.5,417.9 L87.0,417.9 L92.5,417.0 L98.0,416.7
		L103.5,415.7 L109.0,415.7 L114.5,415.3 L120.0,414.6 L125.5,414.2 L131.0,413.9 L136.5,413.8 L142.0,413.8
		L147.5,413.6 L153.0,413.3 L158.5,413.3 L164.0,413.1 L169.5,413.1 L175.0,413.1 L180.5,413.1 L186.0,412.8
		L191.5,412.7 L197.0,412.6 L202.5,412.6 L208.0,412.1 L213.5,411.6 L219.0,411.6 L224.5,411.6 L230.0,411.3
		L235.5,411.1 L241.0,410.7 L246.5,410.5 L252.0,410.5 L257.5,410.4 L263.0,410.4 L268.5,410.3 L274.0,410.0
		L279.5,409.7 L285.0,409.7 L290.5,409.6 L296.0,409.4 L301.5,409.2 L307.0,409.2 L312.5,409.1 L318.0,409.0
		L323.5,408.8 L329.0,408.7 L334.5,408.7 L340.0,408.6 L345.5,408.6 L351.0,408.5 L356.5,408.5 L362.0,408.4
		L367.5,408.2 L373.0,408.1 L378.5,408.0 L384.0,408.0 L389.5,407.7 L395.0,407.6 L400.5,407.5 L406.0,407.2
		L411.5,406.7 L417.0,406.6 L422.5,406.2 L428.0,406.0 L433.5,405.8 L439.0,405.1 L444.5,405.0 L450.0,404.6
		L455.5,404.5 L461.0,404.3 L466.5,403.8 L472.0,403.6 L477.5,401.3 L483.0,400.2 L488.5,399.8 L494.0,399.1
		L499.5,398.8 L505.0,396.0 L510.5,395.8 L516.0,395.3 L521.5,394.9 L527.0,394.9 L532.5,394.6 L538.0,394.5
		L543.5,393.5 L549.0,393.2 L554.5,392.5 L560.0,391.9 L565.5,391.8 L571.0,391.6 L576.5,391.0 L582.0,390.6
		L587.5,390.6 L593.0,390.2 L598.5,389.9 L604.0,383.0 L609.5,380.7 L615.0,370.8  '/></g>
	</g>
	<g id="gnuplot_plot_3" ><title>score p10=3785</title>
<g fill="none" color="black" stroke="currentColor" stroke-width="1.00" stroke-linecap="butt" stroke-linejoin="miter">
	<g transform="translate(558.5,467.9)" stroke="none" fill="black" font-family="Arial" font-size="12.00"  text-anchor="end">
		<text><tspan font-family="Arial" >score p10=3785</tspan></text>
	</g>
</g>
<g fill="none" color="black" stroke="currentColor" stroke-width="1.00" stroke-linecap="butt" stroke-linejoin="miter">
	<path stroke='rgb( 86, 180, 233)'  d='M566.8,464.0 L609.0,464.0  '/></g>
	</g>
	<g id="gnuplot_plot_4" ><title>score median=7300</title>
<g fill="none" color="black" stroke="currentColor" stroke-width="1.00" stroke-linecap="butt" stroke-linejoin="miter">
	<g transform="translate(558.5,485.9)" stroke="none" fill="black" font-family="Arial" font-size="12.00"  text-anchor="end">
		<text><tspan font-family="Arial" >score median=7300</tspan></text>
	</g>
</g>
<g fill="none" color="black" stroke="currentColor" stroke-width="1.00" stroke-linecap="butt" stroke-linejoin="miter">
	<path stroke='rgb(230, 159,   0)'  d='M566.8,482.0 L609.0,482.0  '/></g>
	</g>
<g fill="none" color="#FFFFFF" stroke="rgb(230, 159,   0)" stroke-width="2.00" stroke-linecap="butt" stroke-linejoin="miter">
</g>
<g fill="none" color="black" stroke="currentColor" stroke-width="2.00" stroke-linecap="butt" stroke-linejoin="miter">
</g>
<g fill="none" color="black" stroke="black" stroke-width="1.00" stroke-linecap="butt" stroke-linejoin="miter">
</g>
<g fill="none" color="black" stroke="currentColor" stroke-width="1.00" stroke-linecap="butt" stroke-linejoin="miter">
	<path stroke='black'  d='M70.5,18.1 L70.5,428.0 L615.0,428.0 L615.0,18.1 L70.5,18.1 Z  '/></g>
<g fill="none" color="black" stroke="currentColor" stroke-width="1.00" stroke-linecap="butt" stroke-linejoin="miter">
</g>
</g>
</svg>
